src/app/public/logo.svg

<svg width="294" height="49" viewBox="0 0 294 49" fill="none" xmlns="http://www.w3.org/2000/svg">
<g clip-path="url(#clip0_9178_3579)">
<path d="M37.113 22.3C31.2151 22.3 26.434 17.308 26.434 11.15C26.434 4.99202 31.2151 0 37.113 0C43.0108 0 47.792 4.99202 47.792 11.15C47.792 17.308 43.0108 22.3 37.113 22.3Z" fill="#0372E1" style="fill:#0372E1;fill:color(display-p3 0.0118 0.4471 0.8824);fill-opacity:1;"/>
<path d="M47.7931 42.1091C47.7932 42.9458 47.6285 43.7744 47.3083 44.5475C46.9881 45.3206 46.5187 46.023 45.927 46.6147C45.3352 47.2063 44.6327 47.6756 43.8596 47.9956C43.0865 48.3157 42.2578 48.4803 41.4211 48.4801H29.9951C29.0509 48.4801 28.1454 48.105 27.4778 47.4374C26.8101 46.7697 26.4351 45.8642 26.4351 44.9201V32.2831C26.4347 31.4816 26.5922 30.6879 26.8987 29.9473C27.2052 29.2067 27.6547 28.5338 28.2214 27.9671C28.788 27.4003 29.4609 26.9507 30.2014 26.6441C30.9419 26.3375 31.7356 26.1798 32.5371 26.1801C40.9631 26.1801 47.7921 33.0101 47.7921 41.4361L47.7931 42.1091Z" fill="#D496F1" style="fill:#D496F1;fill:color(display-p3 0.8314 0.5882 0.9451);fill-opacity:1;"/>
<path d="M4.15304 0C3.16723 0 2.22179 0.391611 1.52472 1.08868C0.827647 1.78576 0.436035 2.73119 0.436035 3.717V4.503C0.436035 13.709 7.42503 21.283 16.386 22.206C16.564 23.536 16.532 24.908 16.293 26.209C16.093 26.1889 15.8921 26.1789 15.691 26.179C7.26604 26.18 0.436035 33.01 0.436035 41.436V42.11C0.435904 42.9468 0.600638 43.7754 0.920827 44.5485C1.24102 45.3216 1.71038 46.024 2.30212 46.6156C2.89385 47.2073 3.59636 47.6765 4.3695 47.9966C5.14264 48.3167 5.97126 48.4813 6.80804 48.481H18.233C19.177 48.481 20.0824 48.1061 20.75 47.4387C21.4176 46.7712 21.7928 45.866 21.793 44.922V6.102C21.793 4.142 21.793 3.162 21.457 2.396C21.0537 1.4748 20.3182 0.739307 19.397 0.336C18.63 0 17.651 0 15.691 0H4.15304Z" fill="black" style="fill:black;fill-opacity:1;"/>
<path d="M293.45 10.443C289.964 10.132 287.662 11.19 287.662 14.8H293.45V23.762H287.662V45.92H278.326V23.762H274.156V14.8H278.326C278.326 6.08602 283.118 0.858015 293.45 1.48002V10.443ZM270.929 10.443C267.443 10.132 265.141 11.19 265.141 14.8H270.929V23.762H265.141V45.92H255.805V23.762H251.635V14.8H255.805C255.805 6.08602 260.597 0.858015 270.929 1.48002V10.443ZM233.574 46.79C224.425 46.79 217.081 39.633 217.081 30.36C217.081 21.087 224.425 13.928 233.574 13.928C242.723 13.928 250.067 21.086 250.067 30.359C250.067 39.632 242.723 46.79 233.574 46.79ZM233.574 37.703C237.619 37.703 240.731 34.778 240.731 30.359C240.731 25.94 237.619 23.015 233.574 23.015C229.528 23.015 226.416 25.94 226.416 30.359C226.416 34.778 229.528 37.703 233.574 37.703ZM203.073 2.35202H212.409V45.92H203.073V42.995C201.019 45.36 197.969 46.792 193.799 46.792C185.646 46.792 178.924 39.634 178.924 30.361C178.924 21.088 185.646 13.93 193.799 13.93C197.969 13.93 201.019 15.361 203.073 17.726V2.35202ZM195.666 37.952C199.961 37.952 203.073 35.028 203.073 30.36C203.073 25.692 199.961 22.767 195.666 22.767C191.372 22.767 188.26 25.692 188.26 30.36C188.26 35.028 191.372 37.952 195.666 37.952ZM163.054 13.928C169.34 13.928 174.692 18.409 174.692 26.812V45.919H165.357V28.18C165.357 24.321 162.929 22.516 159.942 22.516C156.519 22.516 154.154 24.508 154.154 28.926V45.92H144.818V14.8H154.154V17.726C155.834 15.423 158.946 13.928 163.054 13.928ZM129.255 14.8H138.591V45.919H129.255V42.994C127.201 45.359 124.151 46.79 119.981 46.79C111.828 46.79 105.106 39.633 105.106 30.36C105.106 21.087 111.828 13.928 119.981 13.928C124.151 13.928 127.201 15.36 129.255 17.725V14.8ZM121.849 37.952C126.143 37.952 129.255 35.027 129.255 30.359C129.255 25.691 126.143 22.766 121.849 22.766C117.554 22.766 114.442 25.691 114.442 30.359C114.442 35.027 117.554 37.952 121.849 37.952ZM89.236 13.929C95.522 13.929 100.874 18.409 100.874 26.812V45.919H91.539V28.181C91.539 24.323 89.111 22.518 86.124 22.518C82.701 22.518 80.336 24.509 80.336 28.928V45.92H71V2.35202H80.336V17.725C82.016 15.422 85.128 13.929 89.236 13.929Z" fill="black" style="fill:black;fill-opacity:1;"/>
</g>
<defs>
<clipPath id="clip0_9178_3579">
<rect width="294" height="49" fill="white" style="fill:white;fill-opacity:1;"/>
</clipPath>
</defs>
</svg>

<svg className="max-h-5 w-auto" xmlns="http://www.w3.org/2000/svg" width="294" height="49"
    fill="none" viewBox="0 0 294 49">
    <g filter="url(#filter0_i_7830_99242)">
        <ellipse
            cx="10.679"
            cy="11.15"
            fill="color(display-p3 0.0118 0.4471 0.8824)"
            rx="10.679"
            ry="11.15"
            transform="matrix(-1 0 0 1 47.792 0)"
        ></ellipse>
    </g>
    <g filter="url(#filter1_i_7830_99242)">
        <path
            fill="color(display-p3 0.8314 0.5882 0.9451)"
            d="M47.793 42.109a6.37 6.37 0 0 1-6.372 6.371H29.995a3.56 3.56 0 0 1-3.56-3.56V32.283a6.1 6.1 0 0 1 6.102-6.103c8.426 0 15.255 6.83 15.255 15.256z"
        ></path>
    </g>
    <path
        fill="#000"
        fillRule="evenodd"
        d="M4.153 0A3.717 3.717 0 0 0 .436 3.717v.786c0 9.206 6.989 16.78 15.95 17.703.178 1.33.146 2.702-.093 4.003a6 6 0 0 0-.602-.03C7.266 26.18.436 33.01.436 41.436v.674a6.37 6.37 0 0 0 6.372 6.371h11.425a3.56 3.56 0 0 0 3.56-3.559V6.102c0-1.96 0-2.94-.336-3.706a4 4 0 0 0-2.06-2.06C18.63 0 17.651 0 15.691 0z"
        clipRule="evenodd"
    ></path>
    <path
        fill="#000"
        d="M293.45 10.443c-3.486-.311-5.788.747-5.788 4.357h5.788v8.962h-5.788V45.92h-9.336V23.762h-4.17V14.8h4.17c0-8.714 4.792-13.942 15.124-13.32zM270.929 10.443c-3.486-.311-5.788.747-5.788 4.357h5.788v8.962h-5.788V45.92h-9.336V23.762h-4.17V14.8h4.17c0-8.714 4.792-13.942 15.124-13.32zM233.574 46.79c-9.149 0-16.493-7.157-16.493-16.43s7.344-16.432 16.493-16.432 16.493 7.158 16.493 16.431-7.344 16.431-16.493 16.431m0-9.087c4.045 0 7.157-2.925 7.157-7.344s-3.112-7.344-7.157-7.344c-4.046 0-7.158 2.925-7.158 7.344s3.112 7.344 7.158 7.344M203.073 2.352h9.336V45.92h-9.336v-2.925c-2.054 2.365-5.104 3.797-9.274 3.797-8.153 0-14.875-7.158-14.875-16.431s6.722-16.431 14.875-16.431c4.17 0 7.22 1.431 9.274 3.796zm-7.407 35.6c4.295 0 7.407-2.924 7.407-7.592s-3.112-7.593-7.407-7.593c-4.294 0-7.406 2.925-7.406 7.593s3.112 7.593 7.406 7.593M163.054 13.928c6.286 0 11.638 4.481 11.638 12.884v19.107h-9.335V28.18c0-3.859-2.428-5.664-5.415-5.664-3.423 0-5.788 1.992-5.788 6.41V45.92h-9.336v-31.12h9.336v2.926c1.68-2.303 4.792-3.797 8.9-3.797M129.255 14.8h9.336v31.119h-9.336v-2.925c-2.054 2.365-5.104 3.796-9.274 3.796-8.153 0-14.875-7.157-14.875-16.43s6.722-16.432 14.875-16.432c4.17 0 7.22 1.432 9.274 3.797zm-7.406 23.152c4.294 0 7.406-2.925 7.406-7.593s-3.112-7.593-7.406-7.593c-4.295 0-7.407 2.925-7.407 7.593s3.112 7.593 7.407 7.593M89.236 13.929c6.286 0 11.638 4.48 11.638 12.883v19.107h-9.335V28.181c0-3.858-2.428-5.663-5.415-5.663-3.423 0-5.788 1.991-5.788 6.41V45.92H71V2.352h9.336v15.373c1.68-2.303 4.792-3.796 8.9-3.796"
    ></path>
    <defs>
        <filter
            id="filter0_i_7830_99242"
            width="21.357"
            height="23.301"
            x="26.436"
            y="0"
            colorInterpolationFilters="sRGB"
            filterUnits="userSpaceOnUse"
        >
            <feFlood floodOpacity="0" result="BackgroundImageFix"></feFlood>
            <feBlend in="SourceGraphic" in2="BackgroundImageFix" result="shape"></feBlend>
            <feColorMatrix in="SourceAlpha" result="hardAlpha"
                values="0 0 0 0 0 0 0 0 0 0 0 0 0 0 0 0 0 0 127 0"></feColorMatrix>
            <feOffset dy="1"></feOffset>
            <feGaussianBlur stdDeviation="1.5"></feGaussianBlur>
            <feComposite in2="hardAlpha" k2="-1" k3="1" operator="arithmetic"></feComposite>
            <feColorMatrix values="0 0 0 0 0 0 0 0 0 0 0 0 0 0 0 0 0 0 0.25 0"></feColorMatrix>
            <feBlend in2="shape" result="effect1_innerShadow_7830_99242"></feBlend>
        </filter>
        <filter
            id="filter1_i_7830_99242"
            width="21.357"
            height="23.301"
            x="26.436"
            y="26.179"
            colorInterpolationFilters="sRGB"
            filterUnits="userSpaceOnUse"
        >
            <feFlood floodOpacity="0" result="BackgroundImageFix"></feFlood>
            <feBlend in="SourceGraphic" in2="BackgroundImageFix" result="shape"></feBlend>
            <feColorMatrix in="SourceAlpha" result="hardAlpha"
                values="0 0 0 0 0 0 0 0 0 0 0 0 0 0 0 0 0 0 127 0"></feColorMatrix>
            <feOffset dy="1"></feOffset>
            <feComposite in2="hardAlpha" k2="-1" k3="1" operator="arithmetic"></feComposite>
            <feColorMatrix values="0 0 0 0 0 0 0 0 0 0 0 0 0 0 0 0 0 0 0.15 0"></feColorMatrix>
            <feBlend in2="shape" result="effect1_innerShadow_7830_99242"></feBlend>
        </filter>
    </defs>
</svg>
